icons/lines/home.svg

<svg xmlns="http://www.w3.org/2000/svg" width="24" height="24" viewBox="0 0 24 24" fill="none" stroke="currentColor" stroke-width="2" stroke-linecap="round" stroke-linejoin="round" >
  <path d="M12 18V15"/>
  <path d="M10.0703 2.81997L3.14027 8.36997C2.36027 8.98997 1.86027 10.3 2.03027 11.28L3.36027 19.24C3.60027 20.66 4.96027 21.81 6.40027 21.81H17.6003C19.0303 21.81 20.4003 20.65 20.6403 19.24L21.9703 11.28C22.1303 10.3 21.6303 8.98997 20.8603 8.36997L13.9303 2.82997C12.8603 1.96997 11.1303 1.96997 10.0703 2.81997Z"/>
  </svg>

<svg xmlns="http://www.w3.org/2000/svg" width="24" height="24" viewBox="0 0 24 24" fill="none" stroke="currentColor" stroke-width="2" stroke-linecap="round" stroke-linejoin="round">
  <path d="M12 18v-3" />
  <path d="M3.14 8.37c-.78.62-1.28 1.93-1.11 2.91l1.33 7.96c.24 1.42 1.6 2.57 3.04 2.57h11.2c1.43 0 2.8-1.16 3.04-2.57l1.33-7.96c.16-.98-.34-2.29-1.11-2.91l-6.93-5.54c-1.07-.86-2.8-.86-3.86-.01z" />
</svg>
